X:1
T:Title
%%score { ( 1 3 4 ) | ( 2 5 ) }
L:1/8
Q:1/4=100
M:4/4
K:Db
V:1 treble nm="Grand Piano"
V:3 treble 
V:4 treble 
V:2 bass 
V:5 bass 
V:1
 [FA]>[_F=G] [=FA]>[GB] [FA]2 F2 | B>A G>F [CE]4 | [EG]>[=DF] [EG]>[FA] [EG]2 [CE]2 | %3
w: C.~D.~Amstutz * * * * *|||
 c>c B>B [CA]4 | [FA]>[_F=G] [=FA]>[_GB] [FA]2 F2 | B>[Ac] [Bd]>[GB] [FA]4 | d>d c>c B2 e2 | %7
w: ||||
 d>d [Ec]>[Ec] [Fd]4 | A6 z2 | d3 c z4 | c6 z2 | A6 z2 | F>F F>F z z/ d/ c>d | e4 z4 | c6 z2 | %15
w: ||||||||
 A6 z2 | A6 z2 | z2 z c z4 | c6 z2 | A6 z2 | A2 z2 z4 | d3 B z4 | z z/ F/ F>F z z/ d/ c>c | %23
w: ||||||||
 d->[Fd-] [Gd-]>[Gd-] [Fd]2 z2 |] %24
w: |
V:2
 [D,A,]>[D,B,] [D,A,]>[D,D] [D,D]2 [D,A,D]2 | [G,D]>[F,A,D] [E,A,C]>[D,A,D] [A,,A,]4 | %2
 [A,,A,]>[A,,A,] [A,,A,]>[A,,A,] [A,,A,]2 [A,,A,]2 | [E,A,E]>[E,A,E] [E,=G,D]>[E,G,D] [A,,A,]4 | %4
 [D,A,]>[D,B,] [D,A,]>[D,D] [D,D]2 [D,D]2 | [G,DG]>[G,D] [G,D]>[G,D] [D,D]4 | %6
 [B,F]>[B,F][K:bass] [F,=A,F]>[F,A,F] [G,B,D]2[K:treble] [G,B,G]2 | %7
 [A,F]>[A,F][K:bass] [A,,A,]>[A,,A,] [D,A,]4 | [D,D]>[D,D] [D,D]>[D,D] [D,D]2 z z/[K:treble] c/ | %9
 [E,A,]>[E,A,] [E,A,]>[E,A,] [E,A,]2 z2 | [A,G]>A, A,>A, A,2 [A,G]2 | %11
 [D,A,]>[D,A,] [D,A,]>[D,A,] [D,A,]2 z2 | z4 z2 A,2 | [G,B,G]>[G,B,] [G,B,]>[G,B,] [G,B,G]2 z2 | %14
 [E,A,]>[E,A,] [E,A,]>[E,A,] [E,A,]2 E>D | [A,,A,]>[A,,A,] [A,,A,]>[A,,A,] [A,,A,]2 z2 | %16
 [D,A,]>[D,A,] [D,A,]>[D,A,] [D,A,]2 [D,A,]2 | [E,A,]>[E,A,] [E,A,]>[E,A,] [E,A,]2 z2 | %18
 [A,G]>A, A,>A, A,2 [A,G]2 | [D,A,]>[D,A,] [D,A,]>[D,A,] [D,A,]2 z2 | %20
 [D,A,]>D, D,>D, z z/[K:treble] f/[K:bass] A,>[_CF] | [G,B,G]>[G,B,] [G,B,]>[G,B,] [G,DG]2 z2 | %22
 [A,DF]>[A,D] [A,D]>[A,D] [A,D]2 [A,G]2 | [D,A,]>[D,A,] [D,B,]>[D,B,] [D,A,]2 z2 |] %24
V:3
 x8 | x8 | x8 | x8 | x8 | x8 | x8 | x8 | F>F F>F z z/ A/ [DGB]2 | G>G z z/ G/ [Ge]2 z2 | %10
 z z/ G/ G>G G>G c>B | F>F F>F F2 z2 | A6 z2 | z z/ G/ G>G B2 z2 | G>G G>G z z/ c/ B>B | %15
 C>C C>C C2 z2 | F>F F>F z z/ A/ B>c | d->[Gd-] d z/ G/ [Ge]2 z2 | z z/ G/ G>G G>G c>B | %19
 F>F F>F F2 z2 | f->[A,Af-] [A,Af-]>[A,Af-] [A,Af]2 [Ae]>d | z z/ G/ z z/ G/ B2 z2 | A6 z2 | %23
 F2 z2 z4 |] %24
V:4
 x8 | x8 | x8 | x8 | x8 | x8 | x8 | x8 | z4 F2 z2 | z2 G2 z4 | x8 | x8 | z4 F2 z2 | x8 | z4 G2 z2 | %15
 x8 | z4 F2 G2 | G2 G2 z4 | x8 | x8 | x8 | z2 G2 z4 | z4 F2 z2 | x8 |] %24
V:5
 x8 | x8 | x8 | x8 | x8 | x8 | x2[K:bass] x4[K:treble] x2 | x2[K:bass] x6 | z4 z2 D,2[K:treble] | %9
 x8 | x8 | x8 | [D,A,]>[D,A,] [D,A,]>[D,A,] [D,A,]2 [E,E]>[F,D] | x8 | z4 z2 [E,=G,]2 | x8 | x8 | %17
 x8 | x8 | x8 | z4 D,2[K:treble][K:bass] D,2 | x8 | x8 | x8 |] %24

